icons/arrow/up.svg

<svg width="32" height="32" viewBox="0 0 32 32" xmlns="http://www.w3.org/2000/svg"><path fill-rule="evenodd" clip-rule="evenodd" d="M16.0404 4.62625L15.3333 3.91914L14.6262 4.62625L5.62622 13.6262L7.04043 15.0405L14.3333 7.74757V28H16.3333V7.74757L23.6262 15.0405L25.0404 13.6262L16.0404 4.62625Z"/></svg>

<svg viewBox="0 0 32 32" xmlns="http://www.w3.org/2000/svg"><path fill-rule="evenodd" d="M16.04 4.626l-.707-.707-.707.707-9 9 1.414 1.415 7.293-7.293V28h2V7.748l7.293 7.292 1.414-1.414-9-9z"/></svg>
